;START_OF_HEADER
;HEADER_VERSION:0.1
;FLAVOR:Griffin
;GENERATOR.NAME:Cura_SteamEngine
;GENERATOR.VERSION:5.6.0
;GENERATOR.BUILD_DATE:2023-11-28
;TARGET_MACHINE.NAME:Ultimaker S5
;EXTRUDER_TRAIN.0.INITIAL_TEMPERATURE:205
;EXTRUDER_TRAIN.0.MATERIAL.VOLUME_USED:2044
;EXTRUDER_TRAIN.0.MATERIAL.GUID:506c9f0d-e3aa-4bd4-b2d2-23e2425b1aa9
;EXTRUDER_TRAIN.0.NOZZLE.DIAMETER:0.4
;EXTRUDER_TRAIN.0.NOZZLE.NAME:AA 0.4
;BUILD_PLATE.INITIAL_TEMPERATURE:60
;BUILD_VOLUME.TEMPERATURE:28
;PRINT.TIME:1417
;PRINT.GROUPS:1
;PRINT.SIZE.MIN.X:135.744
;PRINT.SIZE.MIN.Y:116.227
;PRINT.SIZE.MIN.Z:0.2
;PRINT.SIZE.MAX.X:214.64
;PRINT.SIZE.MAX.Y:179.457
;PRINT.SIZE.MAX.Z:8.8
;SLICE_UUID:615040ad-eed7-4ef8-9428-3e81076f5d3d
;END_OF_HEADER
;Generated with Cura_SteamEngine 5.6.0
T0
M82 ;absolute extrusion mode

G92 E0
M190 S60
M109 S205
G280 S1
G0 Z20.001
G1 F2700 E-6.5
;LAYER_COUNT:44
;LAYER:0
M106 S255
M204 S1000
M205 X20 Y20
G1 F600 Z2.2
G0 F9000 X211.815 Y174.531 Z2.2
;TYPE:SKIRT
G1 F600 Z0.2
G1 F2700 E0
G1 F1800 X211.274 Y175.513 E0.01406
G1 X210.456 Y176.277 E0.0281
G1 X209.917 Y176.575 E0.03582
G1 X209.233 Y176.829 E0.04497
G1 X207.828 Y176.99 E0.0627
G1 X204.201 Y177.456 E0.10856
G1 X200.863 Y177.711 E0.15054
G1 X199.078 Y177.828 E0.17298
G1 X196.803 Y178.008 E0.20159
G1 X194.116 Y178.283 E0.23547
G1 X191.461 Y178.63 E0.26904
G1 X190.589 Y178.708 E0.28002
G1 X189.194 Y178.808 E0.29756
G1 X186.513 Y179.077 E0.33135
G1 X185.113 Y179.26 E0.34906
G1 X183.806 Y179.413 E0.36556
G1 X179.296 Y179.457 E0.42212
G1 X175.669 Y179.434 E0.4676
G1 X172.473 Y179.07 E0.50794
G1 X169.771 Y178.839 E0.54195
G1 X165.076 Y178.551 E0.60094
G1 X161.361 Y178.298 E0.64763
G1 X158.625 Y178.193 E0.68197
G1 X155.888 Y178.165 E0.71629
G1 X153.081 Y178.217 E0.7515
G1 X150.389 Y178.279 E0.78527
G1 X147.762 Y177.983 E0.81842
G1 X145.196 Y177.76 E0.85072
G1 X144.149 Y177.647 E0.86393
G1 X143.379 Y177.479 E0.87381
G1 X140.677 Y176.931 E0.90838
G1 X139.931 Y176.802 E0.91788
G1 X138.311 Y176.5 E0.93854
G1 X137.611 Y176.185 E0.94817
G1 X136.725 Y175.499 E0.96222
G1 X136.095 Y174.568 E0.97632
G1 X135.886 Y173.994 E0.98398
G1 X135.745 Y173.263 E0.99331
G1 X135.744 Y171.61 E1.01404
G1 X135.761 Y170.707 E1.02537
G1 X135.905 Y169.584 E1.03957
G1 X136.023 Y168.761 E1.04999
G1 X136.331 Y166.069 E1.08397
G1 X136.564 Y163.355 E1.11813
G1 X136.721 Y160.627 E1.1524
G1 X136.807 Y157.613 E1.19021
G1 X137.27 Y154.866 E1.22515
G1 X137.659 Y152.136 E1.25973
G1 X137.965 Y149.455 E1.29357
G1 X138.196 Y146.751 E1.3276
G1 X138.378 Y143.589 E1.36732
G1 X138.636 Y142.201 E1.38502
G1 X139.107 Y139.454 E1.41997
G1 X139.486 Y136.786 E1.45377
G1 X139.799 Y134.022 E1.48865
G1 X140.026 Y131.358 E1.52218
G1 X140.182 Y128.593 E1.55691
G1 X140.236 Y127.312 E1.57298
G1 X140.459 Y126.559 E1.58283
G1 X140.723 Y126.02 E1.59036
G1 X141.385 Y125.193 E1.60364
G1 X141.82 Y124.857 E1.61054
G1 X142.52 Y124.494 E1.62043
G1 X143.493 Y124.118 E1.63351
G1 X144.637 Y123.658 E1.64897
G1 X145.768 Y123.224 E1.66416
G1 X146.67 Y123.119 E1.67555
G1 X148.128 Y123.118 E1.69383
G1 X150.256 Y123.153 E1.72052
G1 X152.969 Y123.158 E1.75454
G1 X155.722 Y123.085 E1.78908
G1 X158.41 Y122.937 E1.82284
G1 X161.154 Y122.709 E1.85737
G1 X163.843 Y122.408 E1.8913
G1 X166.566 Y122.025 E1.92578
G1 X169.234 Y121.573 E1.95972
G1 X171.92 Y121.039 E1.99406
G1 X174.561 Y120.437 E2.02803
G1 X177.22 Y119.751 E2.06247
G1 X179.823 Y118.998 E2.09645
G1 X182.421 Y118.167 E2.13065
G1 X185.723 Y116.994 E2.1746
G1 X186.405 Y116.738 E2.18373
G1 X187.12 Y116.501 E2.19318
G1 X187.828 Y116.347 E2.20226
G1 X189.144 Y116.227 E2.21884
G1 X190.42 Y116.357 E2.23492
G1 X191.181 Y116.507 E2.24465
G1 X192.399 Y117.089 E2.26158
G1 X192.925 Y117.412 E2.26932
G1 X194.952 Y118.923 E2.30102
G1 X197.15 Y120.472 E2.33474
G1 X199.426 Y121.981 E2.36899
G1 X200.852 Y122.856 E2.38997
G1 X200.952 Y122.927 E2.39151
G1 X202.439 Y123.857 E2.4135
G1 X203.651 Y125.105 E2.43532
G1 X204.533 Y126.853 E2.45987
G1 X205.816 Y129.291 E2.49442
G1 X207.176 Y131.707 E2.52918
G1 X208.562 Y134.014 E2.56294
G1 X210.028 Y136.302 E2.59701
G1 X211.562 Y138.558 E2.63122
G1 X214.161 Y142.102 E2.68634
G1 X214.457 Y142.817 E2.69604
G1 X214.639 Y143.913 E2.70997
G1 X214.64 Y145.71 E2.73251
G1 X214.619 Y146.726 E2.74525
G1 X214.159 Y149.428 E2.77962
G1 X213.772 Y152.145 E2.81404
G1 X213.466 Y154.826 E2.84788
G1 X213.234 Y157.532 E2.88194
G1 X213.062 Y160.589 E2.92033
G1 X212.926 Y161.641 E2.93364
G1 X212.808 Y162.46 E2.94401
G1 X212.5 Y165.159 E2.97808
G1 X212.267 Y167.871 E3.01221
G1 X212.11 Y170.589 E3.04636
G1 X212.018 Y173.785 E3.08645
G1 X211.815 Y174.531 E3.09615
G0 F9000 X211.441 Y174.381
G1 F1800 X210.955 Y175.264 E3.10879
G1 X210.218 Y175.952 E3.12143
G1 X209.778 Y176.2 E3.12776
G1 X209.138 Y176.438 E3.13633
G1 X207.778 Y176.593 E3.15349
G1 X205.707 Y176.853 E3.17967
G1 X204.17 Y177.057 E3.19911
G1 X200.837 Y177.312 E3.24103
G1 X199.046 Y177.429 E3.26354
G1 X196.771 Y177.609 E3.29216
G1 X194.064 Y177.886 E3.32628
G1 X191.409 Y178.233 E3.35986
G1 X190.56 Y178.309 E3.37055
G1 X189.161 Y178.409 E3.38814
G1 X186.461 Y178.68 E3.42216
G1 X185.066 Y178.863 E3.43981
G1 X183.802 Y179.013 E3.45577
G1 X179.299 Y179.057 E3.51224
G1 X175.672 Y179.034 E3.55773
G1 X172.507 Y178.671 E3.59768
G1 X169.805 Y178.441 E3.63168
G1 X165.103 Y178.152 E3.69076
G1 X161.376 Y177.898 E3.73761
G1 X158.64 Y177.793 E3.77194
G1 X155.885 Y177.765 E3.80649
G1 X153.072 Y177.817 E3.84178
G1 X150.38 Y177.879 E3.87554
G1 X147.797 Y177.584 E3.90815
G1 X145.238 Y177.362 E3.94036
G1 X144.234 Y177.256 E3.95302
G1 X143.464 Y177.088 E3.9629
G1 X140.757 Y176.539 E3.99754
G1 X140.004 Y176.409 E4.00712
G1 X138.433 Y176.116 E4.02716
G1 X137.817 Y175.839 E4.03563
G1 X137.02 Y175.222 E4.04827
G1 X136.455 Y174.387 E4.06091
G1 X136.278 Y173.914 E4.06725
G1 X136.145 Y173.263 E4.07558
G1 X136.144 Y171.617 E4.09622
G1 X136.158 Y170.758 E4.107
G1 X136.301 Y169.641 E4.12112
G1 X136.419 Y168.818 E4.13154
G1 X136.73 Y166.103 E4.16581
G1 X136.962 Y163.389 E4.19997
G1 X137.121 Y160.638 E4.23453
G1 X137.207 Y157.624 E4.27234
G1 X137.664 Y154.933 E4.30657
G1 X138.055 Y152.192 E4.34129
G1 X138.364 Y149.489 E4.37541
G1 X138.594 Y146.785 E4.40944
G1 X138.771 Y143.662 E4.44867
G1 X139.029 Y142.274 E4.46637
G1 X139.501 Y139.522 E4.50138
G1 X139.882 Y136.842 E4.53533
G1 X140.198 Y134.056 E4.57049
G1 X140.424 Y131.392 E4.60402
G1 X140.582 Y128.61 E4.63896
G1 X140.634 Y127.376 E4.65445
G1 X140.821 Y126.728 E4.66291
G1 X141.035 Y126.27 E4.66925
G1 X141.665 Y125.483 E4.68189
G1 X142.065 Y125.174 E4.68823
G1 X142.664 Y124.867 E4.69667
G1 X143.637 Y124.491 E4.70975
G1 X144.78 Y124.031 E4.7252
G1 X145.863 Y123.615 E4.73975
G1 X146.67 Y123.519 E4.74994
G1 X148.121 Y123.518 E4.76814
G1 X150.249 Y123.553 E4.79483
G1 X152.979 Y123.558 E4.82906
G1 X155.733 Y123.485 E4.86361
G1 X158.443 Y123.336 E4.89765
G1 X161.195 Y123.107 E4.93228
G1 X163.887 Y122.806 E4.96625
G1 X166.622 Y122.421 E5.00088
G1 X169.307 Y121.966 E5.03503
G1 X172.009 Y121.429 E5.06958
G1 X174.65 Y120.827 E5.10355
G1 X177.326 Y120.136 E5.13821
G1 X179.945 Y119.379 E5.1724
G1 X182.55 Y118.546 E5.20669
G1 X185.857 Y117.371 E5.2507
G1 X186.531 Y117.118 E5.25973
G1 X187.246 Y116.881 E5.26918
G1 X187.912 Y116.738 E5.27772
G1 X189.139 Y116.629 E5.29317
G1 X190.38 Y116.755 E5.30881
G1 X191.053 Y116.889 E5.31742
G1 X192.19 Y117.43 E5.33321
G1 X192.686 Y117.733 E5.3405
G1 X194.716 Y119.246 E5.37225
G1 X196.929 Y120.805 E5.40619
G1 X199.217 Y122.322 E5.44062
G1 X200.643 Y123.197 E5.4616
G1 X200.725 Y123.257 E5.46287
G1 X202.184 Y124.169 E5.48445
G1 X203.322 Y125.341 E5.50494
G1 X204.179 Y127.039 E5.52879
G1 X205.467 Y129.487 E5.56348
G1 X206.833 Y131.913 E5.59839
G1 X208.225 Y134.23 E5.63229
G1 X209.697 Y136.527 E5.6665
G1 X211.239 Y138.795 E5.70089
G1 X213.812 Y142.304 E5.75546
G1 X214.07 Y142.926 E5.7639
G1 X214.239 Y143.913 E5.77646
G1 X214.24 Y145.704 E5.79892
G1 X214.225 Y146.659 E5.8109
G1 X213.765 Y149.361 E5.84527
G1 X213.376 Y152.089 E5.87983
G1 X213.067 Y154.792 E5.91394
G1 X212.836 Y157.498 E5.948
G1 X212.665 Y160.538 E5.98618
G1 X212.53 Y161.584 E5.99941
G1 X212.412 Y162.403 E6.00979
G1 X212.101 Y165.125 E6.04414
G1 X211.869 Y167.837 E6.07828
G1 X211.71 Y170.577 E6.1127
G1 X211.619 Y173.727 E6.15221
G1 X211.441 Y174.381 E6.16071
G1 F2700 E-0.33929
G0 F9000 X208.24 Y173.122
G1 F2700 E6.16071
G1 F1800 X204.936 Y173.381 E6.20227
G1 X204.907 Y173.385 E6.20264
G1 X203.934 Y173.608 E6.21516
G1 X203.827 Y173.673 E6.21673
G1 X203.823 Y173.681 E6.21684
G1 X199.661 Y173.991 E6.26918
G1 X196.23 Y174.194 E6.31228
G1 X192.006 Y174.458 E6.36535
G1 X191.976 Y174.463 E6.36574
G1 X191.394 Y174.589 E6.3732
G1 X191.364 Y174.597 E6.37359
G1 X190.933 Y174.763 E6.37938
G1 X190.836 Y174.842 E6.38095
G1 X190.827 Y174.874 E6.38137
G1 X185.965 Y175 E6.44236
G1 X185.943 Y175.002 E6.44264
G1 X184.997 Y175.133 E6.45462
G1 X184.943 Y175.148 E6.45532
G1 X184.031 Y175.552 E6.46783
G1 X183.592 Y175.624 E6.47341
G1 X182.166 Y175.615 E6.49129
G1 X182.161 Y175.615 E6.49135
G1 X179.765 Y175.664 E6.5214
G1 X178.487 Y175.645 E6.53743
G1 X175.881 Y175.644 E6.57011
G1 X174.817 Y175.345 E6.58397
G1 X174.777 Y175.338 E6.58448
G1 X169.535 Y174.972 E6.65038
G1 X169.529 Y174.972 E6.65045
G1 X168.326 Y174.926 E6.66555
G1 X168.265 Y174.944 E6.66635
G1 X164.829 Y174.727 E6.70952
G1 X163.905 Y174.652 E6.72115
G1 X163.029 Y174.461 E6.73239
G1 X163.006 Y174.457 E6.73268
G1 X162.046 Y174.361 E6.74478
G1 X162.039 Y174.31 E6.74543
G1 X161.939 Y174.216 E6.74715
G1 X161.101 Y173.856 E6.75859
G1 X161.042 Y173.841 E6.75935
G1 X160.469 Y173.784 E6.76657
G1 X160.435 Y173.784 E6.767
G1 X159.713 Y173.836 E6.77608
G1 X159.597 Y173.883 E6.77765
G1 X159.559 Y173.946 E6.77857
G1 X158.888 Y173.919 E6.78699
G1 X158.848 Y173.922 E6.78749
G1 X157.933 Y174.069 E6.79911
G1 X157.066 Y174.13 E6.81001
G1 X157.037 Y174.135 E6.81038
G1 X156.316 Y174.293 E6.81964
G1 X153.564 Y174.387 E6.85417
G1 X153.528 Y174.4 E6.85465
G1 X152.169 Y174.445 E6.8717
G1 X150.687 Y174.473 E6.89029
G1 X150.557 Y174.378 E6.89231
G1 X150.081 Y174.272 E6.89842
G1 X150.056 Y174.268 E6.89874
G1 X149.155 Y174.188 E6.91009
G1 X148.456 Y174.109 E6.91891
G1 X148.436 Y174.108 E6.91916
G1 X148.322 Y174.107 E6.92059
G1 X148.975 Y173.998 E6.92889
G1 X148.994 Y173.994 E6.92913
G1 X150.056 Y173.706 E6.94293
G1 X150.085 Y173.696 E6.94332
G1 X152.681 Y172.54 E6.97895
G1 X152.774 Y172.456 E6.98052
G1 X152.799 Y172.333 E6.9821
G1 X152.761 Y172.238 E6.98338
G1 X151.876 Y171.037 E7.00209
G1 X151.748 Y170.349 E7.01087
G1 X151.698 Y170.258 E7.01217
G1 X152.095 Y170.333 E7.01723
G1 X152.172 Y170.333 E7.0182
G1 X153.85 Y169.991 E7.03968
G1 X155.387 Y169.963 E7.05895
G1 X156.203 Y169.937 E7.06919
G1 X155.379 Y170.943 E7.0855
G1 X155.334 Y171.06 E7.08707
G1 X155.359 Y171.167 E7.08845
G1 X156.051 Y172.412 E7.10631
G1 X156.162 Y172.504 E7.10812
G1 X156.871 Y172.744 E7.11751
G1 X157.741 Y173.151 E7.12955
G1 X157.793 Y173.167 E7.13023
G1 X159.863 Y173.516 E7.15656
G1 X159.89 Y173.519 E7.1569
G1 X161.68 Y173.569 E7.17935
G1 X168.002 Y173.691 E7.25865
G1 X168.011 Y173.691 E7.25876
G1 X175.948 Y173.508 E7.35832
G1 X175.954 Y173.508 E7.3584
G1 X178.462 Y173.365 E7.3899
G1 X178.475 Y173.364 E7.39006
G1 X185.921 Y172.468 E7.48411
G1 X186.053 Y172.394 E7.48601
G1 X187.49 Y170.602 E7.51482
G1 X187.534 Y170.485 E7.51638
G1 X187.516 Y170.394 E7.51755
G1 X187.136 Y169.554 E7.52911
G1 X191.732 Y169.758 E7.5868
G1 X196.396 Y170.092 E7.64544
G1 X196.435 Y170.109 E7.64597
G1 X201.155 Y170.466 E7.70533
G1 X203.142 Y170.64 E7.73034
G1 X205.058 Y170.788 E7.75444
G1 X208.24 Y171.051 E7.79448
G1 X208.24 Y173.122 E7.82045
G0 F9000 X207.84 Y172.752
G1 F1800 X204.905 Y172.982 E7.85737
G1 X204.818 Y172.995 E7.85848
G1 X203.845 Y173.218 E7.87099
G1 X203.679 Y173.29 E7.87326
G1 X199.637 Y173.591 E7.92409
G1 X196.206 Y173.795 E7.96719
G1 X191.981 Y174.059 E8.02028
G1 X191.891 Y174.072 E8.02142
G1 X191.309 Y174.198 E8.02889
G1 X191.22 Y174.224 E8.03005
G1 X190.789 Y174.39 E8.03584
G1 X190.646 Y174.478 E8.03795
G1 X185.954 Y174.6 E8.09681
G1 X185.888 Y174.606 E8.09764
G1 X184.942 Y174.737 E8.10962
G1 X184.781 Y174.783 E8.11171
G1 X183.92 Y175.165 E8.12353
G1 X183.56 Y175.224 E8.1281
G1 X182.169 Y175.215 E8.14555
G1 X182.153 Y175.215 E8.14575
G1 X179.763 Y175.264 E8.17572
G1 X178.493 Y175.245 E8.19165
G1 X178.484 Y175.245 E8.19177
G1 X175.936 Y175.244 E8.22372
G1 X174.925 Y174.96 E8.23689
G1 X174.805 Y174.939 E8.23841
G1 X169.563 Y174.573 E8.30431
G1 X169.544 Y174.572 E8.30455
G1 X168.341 Y174.526 E8.31965
G1 X168.237 Y174.541 E8.32097
G1 X164.854 Y174.328 E8.36347
G1 X163.962 Y174.255 E8.3747
G1 X163.114 Y174.07 E8.38558
G1 X163.046 Y174.059 E8.38644
G1 X162.276 Y173.982 E8.39615
G1 X167.994 Y174.091 E8.46787
G1 X168.02 Y174.091 E8.46819
G1 X175.957 Y173.908 E8.56775
G1 X175.977 Y173.907 E8.568
G1 X178.485 Y173.764 E8.59951
G1 X178.523 Y173.761 E8.59998
G1 X185.969 Y172.865 E8.69403
G1 X186.177 Y172.8 E8.69677
G1 X186.365 Y172.644 E8.69983
G1 X187.802 Y170.852 E8.72864
G1 X187.905 Y170.66 E8.73137
G1 X187.933 Y170.444 E8.7341
G1 X187.881 Y170.229 E8.73687
G1 X187.769 Y169.982 E8.74027
G1 X191.709 Y170.157 E8.78973
G1 X196.349 Y170.489 E8.84807
G1 X196.405 Y170.508 E8.84881
G1 X201.12 Y170.864 E8.90811
G1 X203.107 Y171.039 E8.93312
G1 X203.113 Y171.039 E8.9332
G1 X205.025 Y171.187 E8.95724
G1 X207.84 Y171.419 E8.99266
G1 X207.84 Y172.752 E9.00938
G0 F9000 X207.44 Y172.382
G1 F1800 X204.874 Y172.583 E9.04166
G1 X204.729 Y172.605 E9.0435
G1 X203.756 Y172.828 E9.05602
G1 X203.576 Y172.897 E9.05843
G1 X199.606 Y173.192 E9.10836
G1 X196.183 Y173.396 E9.15136
G1 X191.956 Y173.66 E9.20447
G1 X191.806 Y173.681 E9.20637
G1 X191.224 Y173.807 E9.21384
G1 X191.077 Y173.851 E9.21576
G1 X190.646 Y174.017 E9.22155
G1 X190.531 Y174.081 E9.2232
G1 X185.944 Y174.2 E9.28074
G1 X185.833 Y174.209 E9.28214
G1 X184.887 Y174.34 E9.29412
G1 X184.618 Y174.417 E9.29763
G1 X183.802 Y174.779 E9.30882
G1 X183.528 Y174.823 E9.3123
G1 X182.171 Y174.815 E9.32932
G1 X182.145 Y174.815 E9.32964
G1 X179.761 Y174.864 E9.35955
G1 X178.499 Y174.845 E9.37538
G1 X178.484 Y174.845 E9.37556
G1 X175.992 Y174.844 E9.40681
G1 X175.034 Y174.575 E9.41929
G1 X174.833 Y174.54 E9.42185
G1 X172.616 Y174.385 E9.44972
G1 X175.966 Y174.308 E9.49174
G1 X176 Y174.306 E9.49217
G1 X178.508 Y174.163 E9.52367
G1 X178.57 Y174.158 E9.52445
G1 X186.016 Y173.262 E9.6185
G1 X186.289 Y173.189 E9.62204
G1 X186.53 Y173.043 E9.62558
G1 X186.677 Y172.895 E9.62819
G1 X188.114 Y171.103 E9.657
G1 X188.258 Y170.86 E9.66054
G1 X188.328 Y170.587 E9.66408
G1 X188.322 Y170.408 E9.66632
G1 X191.697 Y170.557 E9.70869
G1 X196.266 Y170.884 E9.76613
G1 X196.375 Y170.907 E9.76753
G1 X201.093 Y171.264 E9.82686
G1 X203.072 Y171.437 E9.85177
G1 X203.082 Y171.438 E9.8519
G1 X204.992 Y171.586 E9.87592
G1 X207.44 Y171.788 E9.90673
G1 X207.44 Y172.382 E9.91418
G1 F2700 E3.41418
G0 F9000 X204.873 Y160.609
G1 F2700 E9.91418
G1 F1800 X200.675 Y160.921 E9.96697
G1 X193.046 Y161.39 E10.06282
G1 X193.003 Y161.398 E10.06337
G1 X191.993 Y161.688 E10.07654
G1 X191.89 Y161.758 E10.0781
G1 X191.875 Y161.8 E10.07866
G1 X187.013 Y161.927 E10.13966
G1 X186.991 Y161.929 E10.13993
G1 X186.045 Y162.06 E10.15191
G1 X185.991 Y162.075 E10.15261
G1 X185.079 Y162.479 E10.16512
G1 X184.64 Y162.551 E10.1707
G1 X183.213 Y162.542 E10.18859
G1 X183.208 Y162.542 E10.18866
G1 X180.812 Y162.591 E10.21871
G1 X179.535 Y162.572 E10.23473
G1 X176.928 Y162.571 E10.26742
G1 X175.863 Y162.272 E10.28129
G1 X175.823 Y162.265 E10.2818
G1 X170.583 Y161.899 E10.34767
G1 X170.577 Y161.899 E10.34775
G1 X169.373 Y161.853 E10.36286
G1 X169.312 Y161.871 E10.36365
G1 X165.877 Y161.654 E10.40682
G1 X164.953 Y161.579 E10.41844
G1 X164.077 Y161.388 E10.42969
G1 X164.054 Y161.384 E10.42998
G1 X163.092 Y161.288 E10.4421
G1 X163.085 Y161.239 E10.44272
G1 X162.988 Y161.148 E10.44439
G1 X162.186 Y160.793 E10.45539
G1 X162.135 Y160.778 E10.45606
G1 X161.118 Y160.624 E10.46895
G1 X161.045 Y160.627 E10.46987
G1 X160.126 Y160.828 E10.48167
G1 X160.06 Y160.868 E10.48264
G1 X158.987 Y160.995 E10.49619
G1 X158.05 Y161.025 E10.50794
G1 X158.011 Y161.03 E10.50843
G1 X157.16 Y161.227 E10.51939
